!!!OTL: De Malbrough (131b), S. 299f
!!!id: T0301
**kern
*clefG2
*k[]
*G:
{8b
=1
4b
8b
8b
8a
8b
=2
4.cc
4.b}
=3
{8a
8a
16a
16a
8a
8a
16g
16a
=4
4b
8a
4g}
=5
{8b
=6
4b
8b
8b
8a
8b
=7
4.cc
4b}
=8
{8dd
=9
4b
8g
4a
8a
=10
4g}
4.r
=11
{8b
=12
4dd
8dd
4ee
8ee
=13
4dd}
4.r
==
*-
!!!minrhy: 16
!!!meters: 6/8 ]  ZZ[5
!!!cut: De Malbrough (131b), S. 299f
!!!reg: Luxemburg
!!!trd: Singendes Volk, Esch-Alzette 1937, posth.
!!!rhy1: X_  X__X_X_X_X_  X__.X__.
!!!rhy2: X_X_XXX_X_XX  X__X_X__
!!!key: T0301  16  G 6/8 ]  ZZ[5
!!!mod: SECHSTONSKALA DUR ?]  AMBITUS[6
!!!kad: 31315
!!!akz: 3343_2231_3343_321_565_
!!!fot: 'a__as"a__b__c__
!!!for: 'a__b__av_c__c__
!!!fok: '-__\__-__\__/__
!! PHRAS[VORWIEGEND AUFTAKTIG]
!!!fkt: historische, Kriegs- und Soldatenlieder
!!!bem1: Junglinster, hhh Vater des Autors, 1890;
!!!bem2: (131a)- StraPen, fff Witry, 31.1.1933
!! THILL, Mathias:
!! PR[36] 2K[8] 2G[23] 3K[3] 3G[0] 4A[3] 4Ü[0] 5A[0] 6K[0] 6G[0]
!! 7K[0] 7G[0] 8A[0] MEHR[0] SI[36] ABS[39] SR[31] SP[5]
!! ST[10] 2k[5] 2g[13] 3k[8] 3g[3] 4d[0] 4ü[0] 5d[0] 6k[0] 6g[0]
!! 7k[0] 7g[0] 8d[0] mehr[0] si[28] dm[+8] sr[18] sp[10]
!! 1F[29] 2F[62] 3F[10] 4F[0] LF[0] 2P[0] 3P[0] 4P[0] TRI[0] DF[3] AB[42]
!! TF[0] U3K[0] U3[0] U4[0] U4Ü[0] U5[0] U6K[0] U6[0] U7K[0] U7[0]
!! N1[5] N2K[0] N2[15] N3K[0] N3[40] N4[23] N4Ü[0] N5[18] N6K[0] N6[0]
!!!n7k: 0] N7[0] O1[0] O2K[0] O2[0] O3K[0] O3[0] HÖ[0
